output/footprints/LKBD_PlateMX.pretty/Plate_MX_2U.svg

<?xml version="1.0" standalone="no"?>
 <!DOCTYPE svg PUBLIC "-//W3C//DTD SVG 1.1//EN" 
 "http://www.w3.org/Graphics/SVG/1.1/DTD/svg11.dtd"> 
<svg
  xmlns:svg="http://www.w3.org/2000/svg"
  xmlns="http://www.w3.org/2000/svg"
  xmlns:xlink="http://www.w3.org/1999/xlink"
  version="1.1"
  width="38.1762mm" height="19.1262mm" viewBox="0.0000 0.0000 38.1762 19.1262">
<title>SVG Image created as Plate_MX_2U.svg date 2025/05/12 22:52:38 </title>
  <desc>Image generated by PCBNEW </desc>
<g style="fill:#000000; fill-opacity:1.0000;stroke:#000000; stroke-opacity:1.0000;
stroke-linecap:round; stroke-linejoin:round;"
 transform="translate(0 0) scale(1 1)">
</g>
<g style="fill:none; 
stroke:#4D7FC4; stroke-width:0.5000; stroke-opacity:1; 
stroke-linecap:round; stroke-linejoin:round;">
<path d="M11.8500 16.0750
L11.8500 3.0750
" />
<path d="M12.6000 2.3250
L25.6000 2.3250
" />
<path d="M25.6000 16.8250
L12.6000 16.8250
" />
<path d="M26.3500 3.0750
L26.3500 16.0750
" />
<path d="M12.6000 2.3250 A0.7500 0.7500 0.0 0 0 11.8500 3.0750" />
<path d="M11.8500 16.0750 A0.7500 0.7500 0.0 0 0 12.6000 16.8250" />
<path d="M26.3500 3.0750 A0.7500 0.7500 0.0 0 0 25.6000 2.3250" />
<path d="M25.6000 16.8250 A0.7500 0.7500 0.0 0 0 26.3500 16.0750" />
</g>
<g style="fill:none; 
stroke:#C83434; stroke-width:0.5000; stroke-opacity:1; 
stroke-linecap:round; stroke-linejoin:round;">
<path d="M11.8500 16.0750
L11.8500 3.0750
" />
<path d="M12.6000 2.3250
L25.6000 2.3250
" />
<path d="M25.6000 16.8250
L12.6000 16.8250
" />
<path d="M26.3500 3.0750
L26.3500 16.0750
" />
<path d="M12.6000 2.3250 A0.7500 0.7500 0.0 0 0 11.8500 3.0750" />
<path d="M11.8500 16.0750 A0.7500 0.7500 0.0 0 0 12.6000 16.8250" />
<path d="M26.3500 3.0750 A0.7500 0.7500 0.0 0 0 25.6000 2.3250" />
<path d="M25.6000 16.8250 A0.7500 0.7500 0.0 0 0 26.3500 16.0750" />
</g>
<g style="fill:none; 
stroke:#AFAFAF; stroke-width:0.1500; stroke-opacity:1; 
stroke-linecap:round; stroke-linejoin:round;">
<text x="19.1000" y="9.2750"
textLength="9.7262" font-size="1.3333" lengthAdjust="spacingAndGlyphs"
text-anchor="middle" opacity="0" stroke-opacity="0">Plate_MX_2U</text>
<g class="stroked-text"><desc>Plate_MX_2U</desc>
<path d="M14.6000 9.2298
L14.6000 8.2298
" />
<path d="M14.6000 8.2298
L14.9810 8.2298
" />
<path d="M14.9810 8.2298
L15.0762 8.2774
" />
<path d="M15.0762 8.2774
L15.1238 8.3251
" />
<path d="M15.1238 8.3251
L15.1714 8.4203
" />
<path d="M15.1714 8.4203
L15.1714 8.5632
" />
<path d="M15.1714 8.5632
L15.1238 8.6584
" />
<path d="M15.1238 8.6584
L15.0762 8.7060
" />
<path d="M15.0762 8.7060
L14.9810 8.7536
" />
<path d="M14.9810 8.7536
L14.6000 8.7536
" />
<path d="M15.7429 9.2298
L15.6476 9.1822
" />
<path d="M15.6476 9.1822
L15.6000 9.0870
" />
<path d="M15.6000 9.0870
L15.6000 8.2298
" />
<path d="M16.5524 9.2298
L16.5524 8.7060
" />
<path d="M16.5524 8.7060
L16.5048 8.6108
" />
<path d="M16.5048 8.6108
L16.4095 8.5632
" />
<path d="M16.4095 8.5632
L16.2190 8.5632
" />
<path d="M16.2190 8.5632
L16.1238 8.6108
" />
<path d="M16.5524 9.1822
L16.4571 9.2298
" />
<path d="M16.4571 9.2298
L16.2190 9.2298
" />
<path d="M16.2190 9.2298
L16.1238 9.1822
" />
<path d="M16.1238 9.1822
L16.0762 9.0870
" />
<path d="M16.0762 9.0870
L16.0762 8.9917
" />
<path d="M16.0762 8.9917
L16.1238 8.8965
" />
<path d="M16.1238 8.8965
L16.2190 8.8489
" />
<path d="M16.2190 8.8489
L16.4571 8.8489
" />
<path d="M16.4571 8.8489
L16.5524 8.8012
" />
<path d="M16.8857 8.5632
L17.2667 8.5632
" />
<path d="M17.0286 8.2298
L17.0286 9.0870
" />
<path d="M17.0286 9.0870
L17.0762 9.1822
" />
<path d="M17.0762 9.1822
L17.1714 9.2298
" />
<path d="M17.1714 9.2298
L17.2667 9.2298
" />
<path d="M17.9810 9.1822
L17.8857 9.2298
" />
<path d="M17.8857 9.2298
L17.6952 9.2298
" />
<path d="M17.6952 9.2298
L17.6000 9.1822
" />
<path d="M17.6000 9.1822
L17.5524 9.0870
" />
<path d="M17.5524 9.0870
L17.5524 8.7060
" />
<path d="M17.5524 8.7060
L17.6000 8.6108
" />
<path d="M17.6000 8.6108
L17.6952 8.5632
" />
<path d="M17.6952 8.5632
L17.8857 8.5632
" />
<path d="M17.8857 8.5632
L17.9810 8.6108
" />
<path d="M17.9810 8.6108
L18.0286 8.7060
" />
<path d="M18.0286 8.7060
L18.0286 8.8012
" />
<path d="M18.0286 8.8012
L17.5524 8.8965
" />
<path d="M18.2190 9.3251
L18.9810 9.3251
" />
<path d="M19.2190 9.2298
L19.2190 8.2298
" />
<path d="M19.2190 8.2298
L19.5524 8.9441
" />
<path d="M19.5524 8.9441
L19.8857 8.2298
" />
<path d="M19.8857 8.2298
L19.8857 9.2298
" />
<path d="M20.2667 8.2298
L20.9333 9.2298
" />
<path d="M20.9333 8.2298
L20.2667 9.2298
" />
<path d="M21.0762 9.3251
L21.8381 9.3251
" />
<path d="M22.0286 8.3251
L22.0762 8.2774
" />
<path d="M22.0762 8.2774
L22.1714 8.2298
" />
<path d="M22.1714 8.2298
L22.4095 8.2298
" />
<path d="M22.4095 8.2298
L22.5048 8.2774
" />
<path d="M22.5048 8.2774
L22.5524 8.3251
" />
<path d="M22.5524 8.3251
L22.6000 8.4203
" />
<path d="M22.6000 8.4203
L22.6000 8.5155
" />
<path d="M22.6000 8.5155
L22.5524 8.6584
" />
<path d="M22.5524 8.6584
L21.9810 9.2298
" />
<path d="M21.9810 9.2298
L22.6000 9.2298
" />
<path d="M23.0286 8.2298
L23.0286 9.0393
" />
<path d="M23.0286 9.0393
L23.0762 9.1346
" />
<path d="M23.0762 9.1346
L23.1238 9.1822
" />
<path d="M23.1238 9.1822
L23.2190 9.2298
" />
<path d="M23.2190 9.2298
L23.4095 9.2298
" />
<path d="M23.4095 9.2298
L23.5048 9.1822
" />
<path d="M23.5048 9.1822
L23.5524 9.1346
" />
<path d="M23.5524 9.1346
L23.6000 9.0393
" />
<path d="M23.6000 9.0393
L23.6000 8.2298
" />
</g><text x="19.1000" y="10.8750"
textLength="4.5357" font-size="1.3333" lengthAdjust="spacingAndGlyphs"
text-anchor="middle" opacity="0" stroke-opacity="0">REF**</text>
<g class="stroked-text"><desc>REF**</desc>
<path d="M17.7667 10.8298
L17.4333 10.3536
" />
<path d="M17.1952 10.8298
L17.1952 9.8298
" />
<path d="M17.1952 9.8298
L17.5762 9.8298
" />
<path d="M17.5762 9.8298
L17.6714 9.8774
" />
<path d="M17.6714 9.8774
L17.7190 9.9251
" />
<path d="M17.7190 9.9251
L17.7667 10.0203
" />
<path d="M17.7667 10.0203
L17.7667 10.1632
" />
<path d="M17.7667 10.1632
L17.7190 10.2584
" />
<path d="M17.7190 10.2584
L17.6714 10.3060
" />
<path d="M17.6714 10.3060
L17.5762 10.3536
" />
<path d="M17.5762 10.3536
L17.1952 10.3536
" />
<path d="M18.1952 10.3060
L18.5286 10.3060
" />
<path d="M18.6714 10.8298
L18.1952 10.8298
" />
<path d="M18.1952 10.8298
L18.1952 9.8298
" />
<path d="M18.1952 9.8298
L18.6714 9.8298
" />
<path d="M19.4333 10.3060
L19.1000 10.3060
" />
<path d="M19.1000 10.8298
L19.1000 9.8298
" />
<path d="M19.1000 9.8298
L19.5762 9.8298
" />
<path d="M20.1000 9.8298
L20.1000 10.0679
" />
<path d="M19.8619 9.9727
L20.1000 10.0679
" />
<path d="M20.1000 10.0679
L20.3381 9.9727
" />
<path d="M19.9571 10.2584
L20.1000 10.0679
" />
<path d="M20.1000 10.0679
L20.2429 10.2584
" />
<path d="M20.8619 9.8298
L20.8619 10.0679
" />
<path d="M20.6238 9.9727
L20.8619 10.0679
" />
<path d="M20.8619 10.0679
L21.1000 9.9727
" />
<path d="M20.7190 10.2584
L20.8619 10.0679
" />
<path d="M20.8619 10.0679
L21.0048 10.2584
" />
</g></g>
<g style="fill:none; 
stroke:#D0D2CD; stroke-width:0.0500; stroke-opacity:1; 
stroke-linecap:round; stroke-linejoin:round;">
<path d="M3.8187 4.0750
L3.8187 17.0750
" />
<path d="M4.3187 3.5750
L10.0687 3.5750
" />
<path d="M4.3187 17.5750
L10.0687 17.5750
" />
<path d="M10.5687 4.0750
L10.5687 17.0750
" />
<path d="M12.1000 16.0750
L12.1000 3.0750
" />
<path d="M12.6000 2.5750
L25.6000 2.5750
" />
<path d="M25.6000 16.5750
L12.6000 16.5750
" />
<path d="M26.1000 3.0750
L26.1000 16.0750
" />
<path d="M27.6312 4.0750
L27.6312 17.0750
" />
<path d="M28.1312 3.5750
L33.8800 3.5750
" />
<path d="M28.1312 17.5750
L33.8813 17.5750
" />
<path d="M34.3800 4.0750
L34.3813 17.0750
" />
<path d="M4.3187 3.5750 A0.5000 0.5000 0.0 0 0 3.8187 4.0750" />
<path d="M3.8187 17.0750 A0.5000 0.5000 0.0 0 0 4.3187 17.5750" />
<path d="M10.5687 4.0750 A0.5000 0.5000 0.0 0 0 10.0687 3.5750" />
<path d="M10.0688 17.5750 A0.5000 0.5000 0.0 0 0 10.5687 17.0750" />
<path d="M12.6000 2.5750 A0.5000 0.5000 0.0 0 0 12.1000 3.0750" />
<path d="M12.1000 16.0750 A0.5000 0.5000 0.0 0 0 12.6000 16.5750" />
<path d="M26.1000 3.0750 A0.5000 0.5000 0.0 0 0 25.6000 2.5750" />
<path d="M25.6000 16.5750 A0.5000 0.5000 0.0 0 0 26.1000 16.0750" />
<path d="M28.1312 3.5750 A0.5000 0.5000 0.0 0 0 27.6312 4.0750" />
<path d="M27.6312 17.0750 A0.5001 0.5001 0.0 0 0 28.1313 17.5750" />
<path d="M34.3801 4.0750 A0.5001 0.5001 0.0 0 0 33.8800 3.5750" />
<path d="M33.8813 17.5749 A0.4999 0.4999 0.0 0 0 34.3812 17.0750" />
<path style="fill:none; 
stroke:#C2C2C2; stroke-width:0.1000; stroke-opacity:1; 
stroke-linecap:round; stroke-linejoin:round;fill:none"
d="M 0.0500,0.0500
38.1500,0.0500
38.1500,19.1000
0.0500,19.1000
Z" /> 
</g> 
</svg>

<svg xmlns="http://www.w3.org/2000/svg" width="144.288" height="72.288" viewBox="0 0 38.176 19.126">
    <g style="fill:none;stroke:#4d7fc4;stroke-width:.5;stroke-opacity:1;stroke-linecap:round;stroke-linejoin:round">
        <path d="M11.85 16.075v-13M12.6 2.325h13M25.6 16.825h-13M26.35 3.075v13M12.6 2.325a.75.75 0 0 0-.75.75M11.85 16.075a.75.75 0 0 0 .75.75M26.35 3.075a.75.75 0 0 0-.75-.75M25.6 16.825a.75.75 0 0 0 .75-.75"/>
    </g>
    <g style="fill:none;stroke:#c83434;stroke-width:.5;stroke-opacity:1;stroke-linecap:round;stroke-linejoin:round">
        <path d="M11.85 16.075v-13M12.6 2.325h13M25.6 16.825h-13M26.35 3.075v13M12.6 2.325a.75.75 0 0 0-.75.75M11.85 16.075a.75.75 0 0 0 .75.75M26.35 3.075a.75.75 0 0 0-.75-.75M25.6 16.825a.75.75 0 0 0 .75-.75"/>
    </g>
    <g style="fill:none;stroke:#afafaf;stroke-width:.15;stroke-opacity:1;stroke-linecap:round;stroke-linejoin:round">
        <g class="stroked-text">
            <path d="M14.6 9.23v-1M14.6 8.23h.381M14.981 8.23l.095.047M15.076 8.277l.048.048M15.124 8.325l.047.095M15.171 8.42v.143M15.171 8.563l-.047.095M15.124 8.658l-.048.048M15.076 8.706l-.095.048M14.981 8.754H14.6M15.743 9.23l-.095-.048M15.648 9.182l-.048-.095M15.6 9.087V8.23M16.552 9.23v-.524M16.552 8.706l-.047-.095M16.505 8.61l-.095-.047M16.41 8.563h-.191M16.219 8.563l-.095.048M16.552 9.182l-.095.048M16.457 9.23h-.238M16.219 9.23l-.095-.048M16.124 9.182l-.048-.095M16.076 9.087v-.095M16.076 8.992l.048-.096M16.124 8.897l.095-.048M16.219 8.849h.238M16.457 8.849l.095-.048M16.886 8.563h.38M17.029 8.23v.857M17.029 9.087l.047.095M17.076 9.182l.095.048M17.171 9.23h.096M17.981 9.182l-.095.048M17.886 9.23h-.19M17.695 9.23l-.095-.048M17.6 9.182l-.048-.095M17.552 9.087v-.381M17.552 8.706l.048-.095M17.6 8.61l.095-.047M17.695 8.563h.19M17.886 8.563l.095.048M17.981 8.61l.048.096M18.029 8.706v.095M18.029 8.801l-.477.095M18.219 9.325h.762M19.219 9.23v-1M19.219 8.23l.333.714M19.552 8.944l.334-.714M19.886 8.23v1M20.267 8.23l.666 1M20.933 8.23l-.666 1M21.076 9.325h.762M22.029 8.325l.047-.048M22.076 8.277l.095-.047M22.171 8.23h.239M22.41 8.23l.095.047M22.505 8.277l.047.048M22.552 8.325l.048.095M22.6 8.42v.095M22.6 8.516l-.048.142M22.552 8.658l-.571.572M21.981 9.23h.619M23.029 8.23v.81M23.029 9.04l.047.095M23.076 9.135l.048.047M23.124 9.182l.095.048M23.219 9.23h.19M23.41 9.23l.095-.048M23.505 9.182l.047-.047M23.552 9.135l.048-.096M23.6 9.04v-.81"/>
        </g>
        <g class="stroked-text">
            <path d="m17.767 10.83-.334-.476M17.195 10.83v-1M17.195 9.83h.381M17.576 9.83l.095.047M17.671 9.877l.048.048M17.719 9.925l.048.095M17.767 10.02v.143M17.767 10.163l-.048.095M17.719 10.258l-.048.048M17.671 10.306l-.095.048M17.576 10.354h-.38M18.195 10.306h.334M18.671 10.83h-.476M18.195 10.83v-1M18.195 9.83h.476M19.433 10.306H19.1M19.1 10.83v-1M19.1 9.83h.476M20.1 9.83v.238M19.862 9.973l.238.095M20.1 10.068l.238-.095M19.957 10.258l.143-.19M20.1 10.068l.143.19M20.862 9.83v.238M20.624 9.973l.238.095M20.862 10.068l.238-.095M20.719 10.258l.143-.19M20.862 10.068l.143.19"/>
        </g>
    </g>
    <g style="fill:none;stroke:#d0d2cd;stroke-width:.05;stroke-opacity:1;stroke-linecap:round;stroke-linejoin:round">
        <path d="M3.819 4.075v13M4.319 3.575h5.75M4.319 17.575h5.75M10.569 4.075v13M12.1 16.075v-13M12.6 2.575h13M25.6 16.575h-13M26.1 3.075v13M27.631 4.075v13M28.131 3.575h5.749M28.131 17.575h5.75M34.38 4.075l.001 13M4.319 3.575a.5.5 0 0 0-.5.5M3.819 17.075a.5.5 0 0 0 .5.5M10.569 4.075a.5.5 0 0 0-.5-.5M10.069 17.575a.5.5 0 0 0 .5-.5M12.6 2.575a.5.5 0 0 0-.5.5M12.1 16.075a.5.5 0 0 0 .5.5M26.1 3.075a.5.5 0 0 0-.5-.5M25.6 16.575a.5.5 0 0 0 .5-.5M28.131 3.575a.5.5 0 0 0-.5.5M27.631 17.075a.5.5 0 0 0 .5.5M34.38 4.075a.5.5 0 0 0-.5-.5M33.881 17.575a.5.5 0 0 0 .5-.5"/>
        <path d="M.05.05h38.1V19.1H.05Z" style="stroke:#c2c2c2;stroke-width:.1;stroke-opacity:1;stroke-linecap:round;stroke-linejoin:round;fill:none"/>
    </g>
</svg>
